X:1
T:Title
%%score ( 1 2 3 ) { ( 4 6 7 ) | 5 }
L:1/8
Q:1/4=105
M:4/4
K:C
V:1 treble nm="Grand Piano, Unnamed-000"
V:2 treble 
V:3 treble 
V:4 treble nm="Choir Pad, Eifionydd, 87.87 D"
V:6 treble 
V:7 treble 
V:5 bass 
V:1
 [EA]2 AB [Ec]2 BA | [E^G]2 A-[_EA] [=EB]2 [B,E]2 | [EA]2 ^GA [FB]2 [EA][FB] | z2 B2 z4 | %4
w: By~John~Ambrose~Lloyd,~Sr.~(1815\-1874) * * * * *||||
 [CA]2 [CA][DB] [Ec]2 BA | [E^G]2 A-[_EA] [=EB]2 [B,E]2 | A2 z2 B2 z2 | c2 B2 z4 | z2 .c2 z4 | %9
w: |||||
 z4 z2 B2 | A2 .A2 z4 | [Fd]2 [Ec]2 [EB]4 | [Ee]2 ed [Ec]2 [^GB]2 | A2 z2 z4 | %14
w: |||||
 [EA]2 [D^G][EA] [FB]2 [EA][FB] | z2 B2 z4 | z8 |] %17
w: |||
V:2
 z2 E2 z2 F2 | z2 .E2 z4 | z2 E2 z4 | c2 z D [CA]4 | z4 z2 F2 | z2 .E2 z4 | %6
 CE[D^G][CA] DF[EA][DB] | z .E3 z4 | [Ec]2 E-[Ed] [Ee]2 [Ec]2 | [EB]2 [Ec]2 [Fd]2 ED | %10
 CDE-[EB] [Ec]2 [Ee]2 | x8 | z2 E2 z4 | z E[E^G]A [GB]2 E2 | x8 | c2 z D [CA]4- | [CA]4 z4 |] %17
V:3
 x8 | x8 | x8 | E4 z4 | x8 | x8 | x8 | .C2 z D [CA]4 | x8 | x8 | x8 | x8 | x8 | x8 | x8 | E4 z4 | %16
 x8 |] %17
V:4
 C2 CD E2 DC | B,2 A,2 ^G,2 G,2 | A,2 B,C B,2 E,A, | A,2 ^G,2 A,4 | A,2 A,2 z[K:treble] EDC | %5
 B,2 A,2[K:bass] ^G,2 G,2 | A,2 B,C B,2 E,F, | z2 z ^G, A,4 | A,2 C2 B,2 A,2 | ^G,2 A,2 A,2 G,2 | %10
 A,B,[K:treble]CD E2 A,2 | A,2[K:bass] A,2 ^G,4 | A,2 ^G,2 A,2 B,2 | CEDC B,2[K:bass] ^G,2 | %14
 A,2 B,C B,2 E,A, | A,2 ^G,2 A,4- | A,4 z4 |] %17
V:5
 A,2 A,2 A,2 D,2 | E,2 F,2 E,2 E,D, | C,2 B,,A,, D,2 C,D, | E,2 E,2 A,,4 | A,,2 A,,2 z2 D,2 | %5
 E,2 F,2 E,2 E,D, | C,2 B,,A,, D,2 C,D, | z4 A,,4 | z2 A,2 ^G,2 z2 | E,2 A,,2 D,2 E,2 | %10
 A,,2 A,,2 A,2 C,2 | D,2 A,,2 E,4 | C,2 E,2 z2 E,D, | C,2 B,,A,, E,2 E,D, | C,2 B,,A,, D,2 C,D, | %15
 E,2 E,2 A,,4- | A,,4 z4 |] %17
V:6
 x8 | x8 | x8 | x8 | z4 A,2[K:treble] z2 | x4[K:bass] x4 | x8 | z .A,3 z4 | x8 | x8 | %10
 x2[K:treble] x6 | x2[K:bass] x6 | x8 | x6[K:bass] x2 | x8 | x8 | x8 |] %17
V:7
 x8 | x8 | x8 | x8 | x5[K:treble] x3 | x4[K:bass] x4 | x8 | E,2 E,2 z4 | x8 | x8 | %10
 x2[K:treble] x6 | x2[K:bass] x6 | x8 | x6[K:bass] x2 | x8 | x8 | x8 |] %17

